Newaita-dark/actions/22/tools-rip-audio-cd.svg

<svg height="22" viewBox="0 0 22 22" width="22" xmlns="http://www.w3.org/2000/svg"><path d="m10.914062 1.992188c-5.039062 0-9.09375 4.054687-9.09375 9.09375 0 5.039062 4.054688 9.097656 9.09375 9.097656v-1.820313c-4.03125 0-7.277343-3.246093-7.277343-7.277343s3.246093-7.277344 7.277343-7.277344 7.277344 3.246094 7.277344 7.277344h1.820313c0-5.039063-4.058594-9.09375-9.097657-9.09375zm0 0" fill="#e0e0e0"/><path d="m10.914062 8.359375c-1.511718 0-2.726562 1.214844-2.726562 2.726563 0 1.511718 1.214844 2.730468 2.726562 2.730468v-.910156c-1.007812 0-1.816406-.8125-1.816406-1.820312 0-1.007813.808594-1.816407 1.816406-1.816407 1.007813 0 1.820313.808594 1.820313 1.816407h.910156c0-1.511719-1.21875-2.726563-2.730469-2.726563zm0 0" fill="#e0e0e0"/><path d="m10.914062 5.628906c-3.023437 0-5.457031 2.433594-5.457031 5.457032h.910157c0-2.519532 2.027343-4.546876 4.546874-4.546876zm0 0" fill="#f44336"/><path d="m19.542969 12.890625c-.03125 0-.058594.003906-.089844.011719l-4.09375.90625c-.214844.050781-.367187.242187-.367187.460937v3.308594c-.203126-.078125-.429688-.125-.667969-.125-.878907 0-1.589844.609375-1.589844 1.367187 0 .753907.710937 1.363282 1.589844 1.363282.882812 0 1.59375-.609375 1.59375-1.363282h.015625v-4.171874l3.152344-.699219v2.265625c-.203126-.082032-.429688-.125-.667969-.125-.878907 0-1.589844.609375-1.589844 1.363281 0 .757813.710937 1.367187 1.589844 1.367187.882812 0 1.59375-.609374 1.59375-1.367187h.015625v-4.09375c0-.125-.050782-.246094-.144532-.335937-.089843-.089844-.214843-.136719-.339843-.132813zm0 0" fill="#e0e0e0"/></svg>

<svg xmlns="http://www.w3.org/2000/svg" xmlns:xlink="http://www.w3.org/1999/xlink" width="22px" height="22px" viewBox="0 0 22 22" version="1.1">
<g id="surface1">
     <defs>
  <style id="current-color-scheme" type="text/css">
   .ColorScheme-Text { color:#eeeeee; } .ColorScheme-Highlight { color:#424242; }
  </style>
 </defs>
<path style="fill:currentColor" class="ColorScheme-Text" d="M 10.914062 1.992188 C 5.875 1.992188 1.820312 6.046875 1.820312 11.085938 C 1.820312 16.125 5.875 20.183594 10.914062 20.183594 L 10.914062 18.363281 C 6.882812 18.363281 3.636719 15.117188 3.636719 11.085938 C 3.636719 7.054688 6.882812 3.808594 10.914062 3.808594 C 14.945312 3.808594 18.191406 7.054688 18.191406 11.085938 L 20.011719 11.085938 C 20.011719 6.046875 15.953125 1.992188 10.914062 1.992188 Z M 10.914062 1.992188 "/>
     <defs>
  <style id="current-color-scheme" type="text/css">
   .ColorScheme-Text { color:#eeeeee; } .ColorScheme-Highlight { color:#424242; }
  </style>
 </defs>
<path style="fill:currentColor" class="ColorScheme-Text" d="M 10.914062 8.359375 C 9.402344 8.359375 8.1875 9.574219 8.1875 11.085938 C 8.1875 12.597656 9.402344 13.816406 10.914062 13.816406 L 10.914062 12.90625 C 9.90625 12.90625 9.097656 12.09375 9.097656 11.085938 C 9.097656 10.078125 9.90625 9.269531 10.914062 9.269531 C 11.921875 9.269531 12.734375 10.078125 12.734375 11.085938 L 13.644531 11.085938 C 13.644531 9.574219 12.425781 8.359375 10.914062 8.359375 Z M 10.914062 8.359375 "/>
<path style=" stroke:none;fill-rule:nonzero;fill:rgb(95.686275%,26.274511%,21.176471%);fill-opacity:1;" d="M 10.914062 5.628906 C 7.890625 5.628906 5.457031 8.0625 5.457031 11.085938 L 6.367188 11.085938 C 6.367188 8.566406 8.394531 6.539062 10.914062 6.539062 Z M 10.914062 5.628906 "/>
     <defs>
  <style id="current-color-scheme" type="text/css">
   .ColorScheme-Text { color:#eeeeee; } .ColorScheme-Highlight { color:#424242; }
  </style>
 </defs>
<path style="fill:currentColor" class="ColorScheme-Text" d="M 19.542969 12.890625 C 19.511719 12.890625 19.484375 12.894531 19.453125 12.902344 L 15.359375 13.808594 C 15.144531 13.859375 14.992188 14.050781 14.992188 14.269531 L 14.992188 17.578125 C 14.789062 17.5 14.5625 17.453125 14.324219 17.453125 C 13.445312 17.453125 12.734375 18.0625 12.734375 18.820312 C 12.734375 19.574219 13.445312 20.183594 14.324219 20.183594 C 15.207031 20.183594 15.917969 19.574219 15.917969 18.820312 L 15.933594 18.820312 L 15.933594 14.648438 L 19.085938 13.949219 L 19.085938 16.214844 C 18.882812 16.132812 18.65625 16.089844 18.417969 16.089844 C 17.539062 16.089844 16.828125 16.699219 16.828125 17.453125 C 16.828125 18.210938 17.539062 18.820312 18.417969 18.820312 C 19.300781 18.820312 20.011719 18.210938 20.011719 17.453125 L 20.027344 17.453125 L 20.027344 13.359375 C 20.027344 13.234375 19.976562 13.113281 19.882812 13.023438 C 19.792969 12.933594 19.667969 12.886719 19.542969 12.890625 Z M 19.542969 12.890625 "/>
</g>
</svg>
